apps/32/xorg.svg

<?xml version="1.0" encoding="UTF-8" standalone="no"?>
<!-- Created with Inkscape (http://www.inkscape.org/) -->

<svg
   width="32"
   height="32"
   version="1.1"
   viewBox="0 0 32 32"
   id="svg22"
   xmlns:xlink="http://www.w3.org/1999/xlink"
   xmlns="http://www.w3.org/2000/svg"
   xmlns:svg="http://www.w3.org/2000/svg">
  <defs
     id="defs12">
    <linearGradient
       id="linearGradient1005-3-3"
       x1="5.2535"
       x2="9.3823996"
       y1="15.383"
       y2="2.9421"
       gradientTransform="matrix(0.99999,0,0,0.99999,1.632,-0.61743)"
       gradientUnits="userSpaceOnUse">
      <stop
         stop-color="#fa8200"
         offset="0"
         id="stop2" />
      <stop
         stop-color="#ff9600"
         offset=".36953"
         id="stop4" />
      <stop
         stop-color="#ffb400"
         offset="1"
         id="stop6" />
    </linearGradient>
    <filter
       id="filter4014"
       x="-0.062499933"
       y="-0.057692993"
       width="1.1249999"
       height="1.115386"
       color-interpolation-filters="sRGB">
      <feGaussianBlur
         stdDeviation="1.093751"
         id="feGaussianBlur9" />
    </filter>
    <linearGradient
       xlink:href="#linearGradient3487"
       id="linearGradient3403"
       gradientUnits="userSpaceOnUse"
       x1="6.9491749"
       y1="4.5549412"
       x2="11.215498"
       y2="59.052471" />
    <linearGradient
       id="linearGradient3487">
      <stop
         style="stop-color:#32373c;stop-opacity:1"
         offset="0"
         id="stop3481" />
      <stop
         id="stop3483"
         offset="0.36804965"
         style="stop-color:#1a1a1a;stop-opacity:1" />
      <stop
         style="stop-color:#31363b;stop-opacity:1"
         offset="1"
         id="stop3485" />
    </linearGradient>
    <linearGradient
       xlink:href="#linearGradient20604"
       id="linearGradient20558"
       gradientUnits="userSpaceOnUse"
       x1="25.802212"
       y1="20.373846"
       x2="25.111048"
       y2="58.912758" />
    <linearGradient
       id="linearGradient20604">
      <stop
         id="stop20598"
         offset="0"
         style="stop-color:#3d3d3d;stop-opacity:1" />
      <stop
         style="stop-color:#000000;stop-opacity:1"
         offset="0.61772454"
         id="stop20600" />
      <stop
         id="stop20602"
         offset="1"
         style="stop-color:#3d3d3d;stop-opacity:1" />
    </linearGradient>
    <filter
       style="color-interpolation-filters:sRGB"
       id="filter20720"
       x="-0.017024755"
       y="-0.016457183"
       width="1.0340491"
       height="1.0329144">
      <feGaussianBlur
         stdDeviation="0.14745661"
         id="feGaussianBlur20722" />
    </filter>
    <linearGradient
       gradientTransform="translate(0.36067797,-0.13016949)"
       xlink:href="#linearGradient4555"
       id="linearGradient4557"
       x1="43.499737"
       y1="64.011795"
       x2="44.141731"
       y2="0.30621234"
       gradientUnits="userSpaceOnUse" />
    <linearGradient
       id="linearGradient4555">
      <stop
         style="stop-color:#141618;stop-opacity:1"
         offset="0"
         id="stop4551" />
      <stop
         id="stop4559"
         offset="0.51820582"
         style="stop-color:#686868;stop-opacity:1" />
      <stop
         style="stop-color:#31363b;stop-opacity:1"
         offset="1"
         id="stop4553" />
    </linearGradient>
    <filter
       style="color-interpolation-filters:sRGB"
       id="filter4601"
       x="-0.030244955"
       width="1.0604899"
       y="-0.030100647"
       height="1.0602013">
      <feGaussianBlur
         stdDeviation="0.014790289"
         id="feGaussianBlur4603" />
    </filter>
    <linearGradient
       xlink:href="#a"
       id="linearGradient4574"
       x1="25"
       y1="44"
       x2="25"
       y2="4"
       gradientUnits="userSpaceOnUse" />
    <linearGradient
       id="a"
       y1="543.77002"
       x1="407.63"
       y2="504.13"
       x2="407.69"
       gradientUnits="userSpaceOnUse"
       gradientTransform="translate(-384.57,-499.8)"
       spreadMethod="pad">
      <stop
         stop-color="#c6cdd1"
         id="stop10127" />
      <stop
         offset="1"
         stop-color="#e0e5e7"
         id="stop10129" />
    </linearGradient>
    <linearGradient
       xlink:href="#a-5"
       id="linearGradient4582"
       x1="10.973"
       y1="24"
       x2="36.937"
       y2="24"
       gradientUnits="userSpaceOnUse"
       gradientTransform="matrix(1.0014118,0,0,1.0025662,0.01122552,0.43837376)" />
    <linearGradient
       gradientUnits="userSpaceOnUse"
       x2="0"
       y2="503.79999"
       y1="542.79999"
       id="a-5">
      <stop
         stop-color="#2a2c2f"
         id="stop10146" />
      <stop
         stop-color="#424649"
         offset="1"
         id="stop10148" />
    </linearGradient>
    <linearGradient
       xlink:href="#LO"
       id="linearGradient4586"
       gradientUnits="userSpaceOnUse"
       gradientTransform="matrix(0.08823783,0,0,0.08717268,-18.921205,3.3914604)"
       x1="319.20801"
       y1="235.149"
       x2="657.65302"
       y2="269.49399" />
    <linearGradient
       id="LO"
       gradientUnits="userSpaceOnUse"
       x1="319.20801"
       y1="235.149"
       x2="657.65302"
       y2="269.49399">
      <stop
         style="stop-color:#e54c18"
         offset="0"
         id="stop10137" />
      <stop
         style="stop-color:#fec350"
         offset="1"
         id="stop10139" />
    </linearGradient>
  </defs>
  <g
     id="g880"
     transform="matrix(0.70248213,0,0,0.70583665,-0.21358258,-1.518085)">
    <rect
       style="fill:url(#linearGradient4574);fill-opacity:1"
       width="40"
       height="40"
       x="4"
       y="4"
       rx="3"
       id="rect10153" />
    <path
       d="M 11.289781,37.990877 21.106604,25.140893 11,11.012001 l 6.495906,0.0054 8.053174,11.109597 -12.041156,15.863875 H 11.289781 Z M 30.503991,38 22.506415,26.871331 34.647838,11 h 2.163265 L 26.954217,23.910613 37,38 Z"
       style="fill:url(#linearGradient4582);fill-opacity:1"
       id="path10159" />
    <path
       d="m 23.998621,15.929203 c -0.780996,0 -1.615396,0.05974 -2.366548,0.13098 1.338208,1.724274 2.448606,3.184374 3.726536,4.842605 -0.717264,-1.524905 -2.191443,-2.987197 -1.68181,-3.739243 0.504471,-0.744427 1.433959,-0.619128 1.50476,-0.619128 1.490204,0 2.924665,0.166272 4.265748,0.474001 l 0.314347,-0.427691 c -1.788652,-0.45489 -3.731444,-0.661524 -5.763033,-0.661524 z m 8.071004,1.391595 -0.28953,0.408622 c 4.131807,1.598454 6.926669,4.651561 6.926669,8.150646 0,5.152431 -6.058837,9.332924 -13.525205,9.332924 -7.466367,0 -13.527962,-4.180494 -13.527962,-9.332924 1e-6,-2.805893 1.797544,-5.32451 4.640758,-7.03647 l -0.874106,-1.315762 c -4.460081,1.868269 -7.4202488,5.147514 -7.4202497,8.880716 0,5.808636 7.1668967,10.520653 15.9986217,10.520653 8.831723,0 16.001378,-4.712016 16.001379,-10.520653 0,-3.873337 -3.187376,-7.260827 -7.930375,-9.087752 z"
       style="fill:url(#linearGradient4586);fill-opacity:1"
       id="path10169" />
  </g>
  <path
     style="display:inline;mix-blend-mode:normal;fill:url(#linearGradient3403);fill-opacity:1;stroke:url(#linearGradient20558);stroke-width:1.16242;stroke-linecap:butt;stroke-linejoin:round;stroke-miterlimit:4;stroke-dasharray:none;stroke-opacity:1;filter:url(#filter20720)"
     d="M 4.7043071,3.9814882 4.6913695,60.80196 H 58.59546 l 1.022155,-2.866369 c 0,0 -23.87537,0.766388 -32.844441,-4.140386 C 16.257548,48.042344 11.401114,4.0978197 11.401114,4.0978197 Z"
     id="path1686"
     transform="matrix(0.5,0,0,0.5,0.06630362,0.01654936)" />
  <rect
     style="display:inline;fill:none;fill-opacity:1;stroke:url(#linearGradient4557);stroke-width:3.71366;stroke-linejoin:round;stroke-miterlimit:7.8;stroke-dasharray:none;stroke-opacity:0.995146;filter:url(#filter4601)"
     id="rect4539"
     width="62.566689"
     height="62.866646"
     x="1.0323594"
     y="0.59551275"
     ry="6.2447233"
     rx="5.8029528"
     transform="matrix(0.46839137,0,0,0.46743669,0.90638486,1.0268972)" />
</svg>

<svg width="32" height="32" version="1.1" viewBox="0 0 32 32" xmlns="http://www.w3.org/2000/svg" xmlns:xlink="http://www.w3.org/1999/xlink">
<defs>
<linearGradient id="linearGradient3403" x1="6.9492" x2="11.215" y1="4.5549" y2="59.052" gradientUnits="userSpaceOnUse">
<stop style="stop-color:#32373c" offset="0"/>
<stop style="stop-color:#1a1a1a" offset=".36805"/>
<stop style="stop-color:#31363b" offset="1"/>
</linearGradient>
<linearGradient id="linearGradient20558" x1="25.802" x2="25.111" y1="20.374" y2="58.913" gradientUnits="userSpaceOnUse">
<stop style="stop-color:#3d3d3d" offset="0"/>
<stop offset=".61772"/>
<stop style="stop-color:#3d3d3d" offset="1"/>
</linearGradient>
<linearGradient id="linearGradient4557" x1="43.5" x2="44.142" y1="64.012" y2=".30621" gradientTransform="translate(.36068 -.13017)" gradientUnits="userSpaceOnUse">
<stop style="stop-color:#141618" offset="0"/>
<stop style="stop-color:#686868" offset=".51821"/>
<stop style="stop-color:#31363b" offset="1"/>
</linearGradient>
<linearGradient id="linearGradient4574" x1="25" x2="25" y1="44" y2="4" gradientTransform="translate(-384.57,-499.8)" gradientUnits="userSpaceOnUse">
<stop stop-color="#c6cdd1" offset="0"/>
<stop stop-color="#e0e5e7" offset="1"/>
</linearGradient>
<linearGradient id="linearGradient4582" x1="10.973" x2="36.937" y1="24" y2="24" gradientTransform="matrix(1.0014 0 0 1.0026 .011226 .43837)" gradientUnits="userSpaceOnUse">
<stop stop-color="#2a2c2f" offset="0"/>
<stop stop-color="#424649" offset="1"/>
</linearGradient>
<linearGradient id="linearGradient4586" x1="319.21" x2="657.65" y1="235.15" y2="269.49" gradientTransform="matrix(.088238 0 0 .087173 -18.921 3.3915)" gradientUnits="userSpaceOnUse">
<stop style="stop-color:#e54c18" offset="0"/>
<stop style="stop-color:#fec350" offset="1"/>
</linearGradient>
</defs>
<g transform="matrix(.70248 0 0 .70584 -.21358 -1.5181)">
<rect x="4" y="4" width="40" height="40" rx="3" style="fill:url(#linearGradient4574)"/>
<path d="m11.29 37.991 9.8168-12.85-10.107-14.129 6.4959 0.0054 8.0532 11.11-12.041 15.864h-2.2181zm19.214 0.009123-7.9976-11.129 12.141-15.871h2.1633l-9.8569 12.911 10.046 14.089z" style="fill:url(#linearGradient4582)"/>
<path d="m23.999 15.929c-0.781 0-1.6154 0.05974-2.3665 0.13098 1.3382 1.7243 2.4486 3.1844 3.7265 4.8426-0.71726-1.5249-2.1914-2.9872-1.6818-3.7392 0.50447-0.74443 1.434-0.61913 1.5048-0.61913 1.4902 0 2.9247 0.16627 4.2657 0.474l0.31435-0.42769c-1.7887-0.45489-3.7314-0.66152-5.763-0.66152zm8.071 1.3916-0.28953 0.40862c4.1318 1.5985 6.9267 4.6516 6.9267 8.1506 0 5.1524-6.0588 9.3329-13.525 9.3329-7.4664 0-13.528-4.1805-13.528-9.3329 1e-6 -2.8059 1.7975-5.3245 4.6408-7.0365l-0.87411-1.3158c-4.4601 1.8683-7.4202 5.1475-7.4202 8.8807 0 5.8086 7.1669 10.521 15.999 10.521 8.8317 0 16.001-4.712 16.001-10.521 0-3.8733-3.1874-7.2608-7.9304-9.0878z" style="fill:url(#linearGradient4586)"/>
</g>
<path transform="matrix(.5 0 0 .5 .066304 .016549)" d="m4.7043 3.9815-0.012938 56.82h53.904l1.0222-2.8664s-23.875 0.76639-32.844-4.1404c-10.516-5.7529-15.372-49.697-15.372-49.697z" style="fill:url(#linearGradient3403);mix-blend-mode:normal;stroke-linejoin:round;stroke-width:1.1624;stroke:url(#linearGradient20558)"/>
<rect transform="matrix(.46839 0 0 .46744 .90638 1.0269)" x="1.0324" y=".59551" width="62.567" height="62.867" rx="5.803" ry="6.2447" style="fill:none;stroke-linejoin:round;stroke-miterlimit:7.8;stroke-opacity:.99515;stroke-width:3.7137;stroke:url(#linearGradient4557)"/>
</svg>
